!!!OTL: Die Kinder und der Hansel.
!!!OTL-incipit:IN DEM WALD STEHT EIN HAUS
!!!COM: H. Langer
!!!ARE: Europa, Mitteleuropa, Deutschland
!!!SCT: F0312
!!!TXL: @@DE
!!!YEM: Copyright 1995, estate of Helmut Schaffrath.
**kern	**text
*ICvox	*
*M3/8	*
*k[f#]	*
*G:	*
!LO:TX:a:t=Allegro.	!
{16dd	1._Jn
16dd	dem
=1	=1
8dd	Wald
16bL	ſteht
16aJ	.
16bL	ein
16ccJ	.
=2	=2
4dd}	Haus,
{(16ee	ſchaut
16dd)	der
=3	=3
16ccL	Han-
16bJ	.
16aL	-ſel
16gJ	.
16f#\L	her-
16ddJ	.
=4	=4
4b}	-aus,
{[16b	ge-
16b]	-hen
=5	=5
8a	Kin-
16f#L	-der
16aJ	.
16ddL	vor-
16eeJ	.
=6	=6
8ff#L	-bei
8ddJ}	.
{16aL	ſind
16bJ	.
=7	=7
8a	lu-
16f#L	-ſtig
16aJ	.
16ddL	alle
16eeJ	.
=8	=8
8ff#L	drei.
8ddJ}	.
{8d	Juch-
=9	=9
4dd	-hei!
8d	juch-
=10	=10
4dd}	-hei!
{16aL	juch-
16ddJ	.
=11	=11
4ff#	-hei!
8dd	juch-
=12	=12
4dd;}	-hei!
{8dd	ſind
=13	=13
16ggL	lu-
16ddJ	.
8b	-ſtig
(16a	al-
16dd)	-le
=14	=14
4g}	drei.
==	==
!!!AGN: Jugend - Lied, Kinder -, Scherz -, Tanz - Lied
!!!ONB: ESAC (Essen Associative Code) Database: FINK
!!!AMT: simple triple
!!!AIN: vox
!!!EED: Helmut Schaffrath
!!!EEV: 1.0
!!!GTL: Jugendlieder
!!Text: R. Reinick
!!!source: Musikalischer Hausschatz der Deutschen. Eine Sammlung von über 1000 Liedern und Gesängen mit Singstimmen und Klavierbegleitung. Leipzig, Litterarisches Verlags-Haus.
!!!page: 187
!!!ENC: Anna Maria Matuszewska
!!!EEV: 2025/03/13
*-	*-
